!!!OTL: ALS JUENGSTENS HERR MERKURIUS
!!!ARE: Europa, Mitteleuropa, Deutschland
!!!SCT: F0840
!!!YEM: Copyright 1995, estate of Helmut Schaffrath.
**kern
*ICvox
*Ivox
*M4/4
*k[f#]
*G:
{4d
=1
4g
4g
4g
4b
=2
4.d
8d
4d}
{4d
=3
4.cc
8b
4.a
8b
=4
4d
4f#
8g
8r}
{4d
=5
4g
4g
4g
4b
=6
4.d
8d
4d}
{4d
=7
4.cc
8b
4.a
8b
=8
4d
4f#
8g
8r}
{4g
=9
4.dd
8cc
4b
4g
=10
4.ee
8dd
4cc}
{4b
=11
4a
4a
4b
4cc
=12
4.dd
8cc
4b}
{4a
=13
4g
4g
4g
4b
=14
4.d
8e
4d}
{4b
=15
4.cc
8a
4f#
4d
=16
2a
8g
8r}
{4a
=17
4g
4g
4g
4b
=18
4.d
8e
4d}
{4b
=19
4.cc
8a
4f#
4d
=20
2a
8g
8r}
==
!!!AGN: erzaehlendes Volks - Lied, Ballade; Scherz
!!!ONB: ESAC (Essen Associative Code) Database: FINK
!!!AMT: simple quadruple
!!!AIN: vox
!!!EED: Helmut Schaffrath
!!!EEV: 1.0
*-
